X:613
T: NU WOLLE GOTT DASS UNSER GSANG
N: E1953
O: Europa, Mitteleuropa, Deutschland
R: geistlich, Fest - Lied, Neujahr
M: 3/2
L: 1/4
K: C
C2 | G,A,C2D2 | CDC2z
E | FED2G,2 | A,B,C2z
D | DDE2D2 | CA,G,2
G2 | FED2C2 | CB,C2

